src/images/icons.svg

<svg xmlns="http://www.w3.org/2000/svg">
  <symbol id="pandy" viewBox="0 0 60 60" preserveAspectRatio="xMinYMin meet">
    <title>Pandy</title>
    <path d="M45.2021563,36.3980882 C34.607903,36.3980882 28.9576334,25.694183 31.7827763,5 C25.426221,5 12.7131105,17.8446732 17.6570943,39.9660458 C17.6570943,39.9660458 9.18169811,39.9660458 5.65026954,27.8349673 C3.5314124,29.2621569 3.5314124,31.4029412 3.5314124,31.4029412 C3.5314124,31.4029412 2.82514286,28.5485621 3.55271368e-15,28.5485621 C2.11885714,34.2573039 4.23769811,38.5388562 2.11885714,44.9611928 C0.706285714,49.2427451 6.35655526,53.5243137 12.0068248,53.5243137 C17.6570943,53.5243137 19.0696658,52.810719 19.0696658,50.6699346 C19.0696658,49.2427451 14.8319515,47.1019771 16.2445229,44.9611928 C17.6570943,42.8204248 18.3633801,42.1068301 19.0696658,42.1068301 C20.4822372,42.1068301 23.3073639,54.9514869 29.6639191,54.9514869 C33.1953315,54.9514869 35.3141887,54.2379085 35.3141887,51.3835294 C35.3141887,47.8155719 28.2513477,43.5340033 28.2513477,38.5388562 C28.2513477,34.9708987 29.6639191,33.5437092 32.4890458,33.5437092 C35.3141887,33.5437092 34.607903,44.9611928 36.7267601,49.2427451 C38.8456011,53.5243137 40.2581725,54.9514869 44.4958706,54.9514869 C46.6147278,54.9514869 48.7335687,54.2379085 48.7335687,52.0971242 C48.7335687,49.2427451 44.4958706,47.8155719 44.4958706,43.5340033 C44.4958706,40.6796405 45.2021563,39.252451 45.2021563,36.3980882 Z M48.7335687,35.6844935 C49.4398544,35.6844935 49.4398544,34.2573039 49.4398544,34.2573039 C47.3210135,34.2573039 45.2021563,33.5437092 43.0833154,31.4029412 C43.0833154,33.5437092 45.2021563,35.6844935 48.7335687,35.6844935 Z M46.6147278,24.9806046 C47.0051321,24.9806046 47.3210135,25.2997549 47.3210135,25.694183 C47.3210135,26.0879085 47.0051321,26.4077778 46.6147278,26.4077778 C46.225035,26.4077778 45.908442,26.0879085 45.908442,25.694183 C45.908442,25.2997549 46.225035,24.9806046 46.6147278,24.9806046 Z M43.0833154,27.8349673 C43.7895849,29.2621569 45.2021563,29.2621569 46.6147278,28.5485621 C50.8524259,26.4077778 50.1461402,23.553415 48.7335687,22.8398203 C45.908442,21.4126307 41.6707439,24.9806046 43.0833154,27.8349673 M40.2581725,14.2766993 C41.6707439,13.5631209 43.0833154,11.4223366 43.0833154,10.7087418 C43.0833154,7.85437908 40.2581725,7.14078431 38.1393154,8.56797386 C36.0204744,9.99514706 33.1953315,12.1359314 35.3141887,14.2766993 C36.7267601,15.7038889 38.8456011,14.9902941 40.2581725,14.2766993 M53.6775687,26.4077778 C53.2868086,26.4077778 52.971283,26.088268 52.971283,25.694183 C52.971283,25.3001144 53.2868086,24.9806046 53.6775687,24.9806046 C54.0683127,24.9806046 54.3838544,25.3001144 54.3838544,25.694183 C54.3838544,26.088268 54.0683127,26.4077778 53.6775687,26.4077778 M51.5587116,24.9806046 C51.5587116,27.1213725 52.971283,28.5485621 53.6775687,28.5485621 C54.3838544,28.5485621 57.2089811,26.4077778 55.7964097,23.553415 C55.090124,22.1262255 51.5587116,22.1262255 51.5587116,24.9806046 M50.8524259,29.2621569 C50.1461402,29.2621569 48.0272992,29.2621569 48.7335687,30.6893464 C49.4398544,32.1165196 50.1461402,32.1165196 50.8524259,32.1165196 C51.5587116,32.1165196 52.2649973,32.1165196 52.971283,30.6893464 C53.6775687,29.2621569 51.5587116,29.2621569 50.8524259,29.2621569 M59.3278383,9.28155229 C57.9152668,7.85437908 54.3838544,8.56797386 53.6775687,9.99514706 C55.7964097,10.7087418 56.5026954,13.5631209 56.5026954,14.9902941 C60.0341078,13.5631209 60.7403935,10.7087418 59.3278383,9.28155229"></path>
  </symbol>

  <symbol id="github" viewBox="0 0 32 32" preserveAspectRatio="xMinYMin meet">
    <title>Github</title>
    <path d="M15.9703802,0 C7.15133884,0 0,7.33179661 0,16.3764068 C0,23.6119322 4.576,29.7505085 10.9215207,31.9159322 C11.7196694,32.0675254 12.0126942,31.560678 12.0126942,31.1281356 C12.0126942,30.7376271 11.9978843,29.4475932 11.9910083,28.0791864 C7.54803306,29.0698305 6.6105124,26.1469831 6.6105124,26.1469831 C5.88403306,24.2541017 4.83728926,23.7507797 4.83728926,23.7507797 C3.38829752,22.7343729 4.9465124,22.7552542 4.9465124,22.7552542 C6.55021488,22.8707797 7.39464463,24.4428475 7.39464463,24.4428475 C8.81904132,26.9464407 11.1307107,26.2226441 12.0420496,25.8042034 C12.1853884,24.7457627 12.5992727,24.023322 13.056,23.6143729 C9.50876033,23.2002712 5.77983471,21.7960678 5.77983471,15.5210847 C5.77983471,13.7331525 6.40370248,12.2722712 7.42532231,11.1254237 C7.25950413,10.7129492 6.7128595,9.04732203 7.58003306,6.79159322 C7.58003306,6.79159322 8.92112397,6.35145763 11.9730248,8.47023729 C13.2469421,8.10738983 14.613157,7.92542373 15.9703802,7.91918644 C17.3276033,7.92542373 18.694876,8.10738983 19.9711736,8.47023729 C23.0193719,6.35145763 24.3586116,6.79159322 24.3586116,6.79159322 C25.2279008,9.04732203 24.6809917,10.7129492 24.5151736,11.1254237 C25.5391736,12.2722712 26.1588099,13.7331525 26.1588099,15.5210847 C26.1588099,21.8109831 22.4227438,23.1959322 18.8665124,23.6013559 C19.4393388,24.1095593 19.9497521,25.1061695 19.9497521,26.6340339 C19.9497521,28.8252203 19.9312397,30.5887458 19.9312397,31.1281356 C19.9312397,31.5639322 20.2187107,32.0745763 21.0282314,31.9137627 C27.370314,29.7458983 31.9404959,23.6094915 31.9404959,16.3764068 C31.9404959,7.33179661 24.7902149,0 15.9703802,0 Z M6.04879339,23.5129492 C6.01361983,23.5943051 5.88879339,23.6187119 5.77507438,23.5628475 C5.65923967,23.5094237 5.59418182,23.3985085 5.63173554,23.3168814 C5.6661157,23.2330847 5.79120661,23.2097627 5.90677686,23.2658983 C6.02287603,23.319322 6.08899174,23.431322 6.04879339,23.5129492 Z M6.69566942,24.2527458 C6.61950413,24.3251525 6.47061157,24.2915254 6.36958678,24.1770847 C6.26512397,24.0629153 6.24555372,23.9102373 6.32277686,23.8367458 C6.40132231,23.764339 6.54571901,23.7982373 6.65044628,23.9124068 C6.75490909,24.0279322 6.77527273,24.1795254 6.69566942,24.2527458 Z M7.32535537,25.1959322 C7.22750413,25.2656271 7.06750413,25.2002712 6.96859504,25.0546441 C6.8707438,24.9090169 6.8707438,24.7343729 6.97071074,24.6644068 C7.0698843,24.5944407 7.22750413,24.6573559 7.32773554,24.8018983 C7.42532231,24.9499661 7.42532231,25.1246102 7.32535537,25.1959322 Z M8.18803306,26.1071186 C8.10049587,26.2061017 7.91404959,26.1795254 7.77758678,26.0444746 C7.63795041,25.9124068 7.59907438,25.7250169 7.68687603,25.6260339 C7.77547107,25.5267797 7.96297521,25.5547119 8.10049587,25.688678 C8.23907438,25.8204746 8.28138843,26.0092203 8.18803306,26.1071186 Z M9.3781157,26.6362034 C9.33950413,26.7644746 9.15993388,26.8227797 8.97904132,26.7682712 C8.79841322,26.7121356 8.68019835,26.5618983 8.71669421,26.4322712 C8.75424793,26.3031864 8.93461157,26.2424407 9.11682645,26.3007458 C9.29719008,26.3566102 9.41566942,26.5057627 9.3781157,26.6362034 Z M10.6850909,26.7343729 C10.6895868,26.8694237 10.5361983,26.9814237 10.346314,26.9838644 C10.1553719,26.9882034 10.0009256,26.8789153 9.99880992,26.7460339 C9.99880992,26.6096271 10.1487603,26.4987119 10.3397025,26.4954576 C10.5295868,26.491661 10.6850909,26.6001356 10.6850909,26.7343729 Z M11.9013554,26.5220339 C11.9240992,26.6538305 11.7921322,26.7891525 11.6035702,26.8252203 C11.4181818,26.8599322 11.2465455,26.7785763 11.2230083,26.6478644 C11.2,26.5128136 11.3343471,26.3774915 11.5194711,26.3425085 C11.7082975,26.3088814 11.8772893,26.3880678 11.9013554,26.5220339 Z"></path>
  </symbol>

  <symbol id="twitter" viewBox="0 0 32 32" preserveAspectRatio="xMinYMin meet">
    <title>Twitter</title>
    <path d="M10.0638648,30 C6.35634076,30 2.90538791,28.871648 0,26.9377121 C0.513610593,27.0006616 1.03623395,27.0328655 1.56611434,27.0328655 C4.64192545,27.0328655 7.47275321,25.9431582 9.71962398,24.1150699 C6.84677567,24.0600194 4.42222466,22.0893833 3.58684663,19.3813384 C3.98762208,19.4609367 4.39893193,19.5035917 4.82194667,19.5035917 C5.42076886,19.5035917 6.00074619,19.4203476 6.55169538,19.2645536 C3.54822049,18.6384611 1.28531402,15.8835078 1.28531402,12.5809666 C1.28531402,12.5522869 1.28531402,12.5237287 1.28578222,12.4952921 C2.17102308,13.0058152 3.18326201,13.3124207 4.25952668,13.3477842 C2.49794067,12.125494 1.33880537,10.0391668 1.33880537,7.67442771 C1.33880537,6.42528063 1.66256264,5.25439512 2.22767475,4.24768879 C5.46571564,8.37149043 10.3032298,11.0851254 15.7595816,11.3693705 C15.6476828,10.8705137 15.5895095,10.3502687 15.5895095,9.81604839 C15.5895095,6.05183682 18.5290757,3 22.1548996,3 C24.0431325,3 25.7493544,3.82782274 26.9469988,5.15255786 C28.4424156,4.84680301 29.8474706,4.27952813 31.1159296,3.4984922 C30.6257288,5.09009443 29.5848129,6.42588825 28.2292695,7.26950913 C29.5573064,7.10472234 30.8226051,6.73832693 32,6.19620755 C31.1197922,7.56311156 30.0066572,8.76364897 28.7240353,9.72466221 C28.7366765,10.0169279 28.7429972,10.3108949 28.7429972,10.6064417 C28.7429972,19.6136926 22.1395662,30 10.0638648,30"></path>
  </symbol>

  <symbol id="instagram" viewBox="0 0 32 32" preserveAspectRatio="xMinYMin meet">
    <title>Instagram</title>
    <path d="M28.3568142,32.0543717 L3.69784071,32.0543717 C1.65578761,32.0543717 0,30.3980177 0,28.3545487 L0,3.69784071 C0,1.65550442 1.65578761,0 3.69784071,0 L28.3568142,0 C30.3991504,0 32.0546549,1.65550442 32.0546549,3.69784071 L32.0546549,28.3545487 C32.0546549,30.3980177 30.3991504,32.0543717 28.3568142,32.0543717 L28.3568142,32.0543717 Z M16.0271858,9.86251327 C12.6224425,9.86251327 9.86279646,12.6218761 9.86279646,16.0266195 C9.86279646,19.4307965 12.6224425,22.1915752 16.0271858,22.1915752 C19.4319292,22.1915752 22.1921416,19.4307965 22.1921416,16.0266195 C22.1921416,12.6218761 19.4319292,9.86251327 16.0271858,9.86251327 L16.0271858,9.86251327 Z M28.3568142,4.93054867 C28.3568142,4.2500531 27.8046018,3.69784071 27.1226903,3.69784071 L23.4248496,3.69784071 C22.7437876,3.69784071 22.1921416,4.2500531 22.1921416,4.93054867 L22.1921416,8.62980531 C22.1921416,9.31030088 22.7437876,9.86251327 23.4248496,9.86251327 L27.1226903,9.86251327 C27.8046018,9.86251327 28.3568142,9.31030088 28.3568142,8.62980531 L28.3568142,4.93054867 Z M28.3568142,13.5600708 L25.5663009,13.5600708 C25.7696283,14.3493097 25.8896991,15.1739469 25.8896991,16.0266195 C25.8896991,21.4745487 21.4742655,25.8896991 16.0271858,25.8896991 C10.5803894,25.8896991 6.16467257,21.4745487 6.16467257,16.0266195 C6.16467257,15.1739469 6.28530973,14.3493097 6.48863717,13.5600708 L3.69784071,13.5600708 L3.69784071,27.1226903 C3.69784071,27.8026195 4.2500531,28.3545487 4.9319646,28.3545487 L27.1226903,28.3545487 C27.8046018,28.3545487 28.3568142,27.8026195 28.3568142,27.1226903 L28.3568142,13.5600708 Z"></path>
  </symbol>

  <symbol id="email" viewBox="0 0 32 32" preserveAspectRatio="xMinYMin meet">
    <title>Email</title>
    <path d="M0,4 L0,8 L16,16 L32,8 L32,4 L0,4 L0,4 Z M0,12 L0,28 L32,28 L32,12 L16,20 L0,12 L0,12 Z"></path>
  </symbol>
</svg>

<svg xmlns="http://www.w3.org/2000/svg">
  <symbol id="github" viewBox="0 0 32 32" preserveAspectRatio="xMinYMin meet">
    <title>Github</title>
    <path d="M15.97 0C7.15 0 0 7.332 0 16.376c0 7.236 4.576 13.375 10.922 15.54.798.152 1.09-.355 1.09-.788 0-.39-.014-1.68-.02-3.05-4.444.992-5.38-1.93-5.38-1.93-.728-1.894-1.775-2.397-1.775-2.397-1.45-1.016.11-.995.11-.995 1.603.116 2.448 1.688 2.448 1.688 1.424 2.503 3.736 1.78 4.647 1.36.143-1.057.557-1.78 1.014-2.19C9.51 23.2 5.78 21.797 5.78 15.522c0-1.787.624-3.248 1.645-4.395-.165-.412-.712-2.078.155-4.333 0 0 1.34-.44 4.393 1.678 1.274-.363 2.64-.545 3.997-.55 1.358.005 2.725.187 4 .55 3.05-2.12 4.39-1.678 4.39-1.678.868 2.255.32 3.92.155 4.333 1.024 1.147 1.644 2.608 1.644 4.396 0 6.29-3.737 7.676-7.293 8.08.572.51 1.083 1.506 1.083 3.034 0 2.19-.02 3.955-.02 4.494 0 .436.29.947 1.098.786C27.37 29.746 31.94 23.61 31.94 16.376 31.94 7.332 24.79 0 15.97 0zM6.05 23.513c-.036.08-.16.106-.275.05-.116-.054-.18-.164-.143-.246.034-.084.16-.107.275-.05.116.052.182.164.142.246zm.646.74c-.076.072-.225.04-.326-.076-.105-.114-.124-.267-.047-.34.078-.073.223-.04.327.075.105.116.125.268.046.34zm.63.943c-.098.07-.258.004-.357-.14-.1-.147-.1-.322 0-.392s.258-.007.358.138c.097.148.097.323-.003.394zm.862.91c-.088.1-.274.074-.41-.062-.14-.132-.18-.32-.09-.418.087-.1.275-.07.412.063.14.13.18.32.088.417zm1.19.53c-.038.128-.218.187-.4.132-.18-.056-.298-.206-.26-.336.036-.13.217-.19.4-.13.18.055.298.204.26.334zm1.307.098c.005.135-.15.247-.34.25-.19.004-.344-.105-.346-.238 0-.136.15-.247.34-.25.19-.004.345.104.345.238zm1.216-.212c.024.132-.108.267-.296.303-.186.035-.357-.046-.38-.177-.024-.135.11-.27.295-.305.188-.034.357.045.38.18z"/>
  </symbol>

  <symbol id="twitter" viewBox="0 0 32 32" preserveAspectRatio="xMinYMin meet">
    <title>Twitter</title>
    <path d="M10.064 30C6.356 30 2.904 28.872 0 26.938c.514.063 1.036.095 1.566.095 3.076 0 5.907-1.09 8.154-2.918-2.873-.055-5.298-2.026-6.133-4.734.4.08.812.124 1.235.124.6 0 1.18-.084 1.73-.24-3.004-.626-5.267-3.38-5.267-6.683v-.085c.886.51 1.898.817 2.975.853-1.762-1.223-2.92-3.31-2.92-5.674 0-1.25.323-2.42.888-3.426 3.238 4.123 8.075 6.837 13.532 7.12-.112-.497-.17-1.018-.17-1.552C15.59 6.052 18.53 3 22.155 3c1.888 0 3.594.828 4.792 2.153 1.495-.306 2.9-.873 4.17-1.655-.49 1.592-1.532 2.928-2.888 3.772 1.327-.165 2.593-.532 3.77-1.074-.88 1.367-1.993 2.568-3.276 3.53.013.29.02.585.02.88C28.743 19.614 22.14 30 10.063 30"/>
  </symbol>

  <symbol id="instagram" viewBox="0 0 32 32" preserveAspectRatio="xMinYMin meet">
    <title>Instagram</title>
    <path d="M28.357 32.054H3.697c-2.04 0-3.697-1.656-3.697-3.7V3.7C0 1.656 1.656 0 3.698 0h24.66c2.04 0 3.697 1.656 3.697 3.698v24.657c0 2.043-1.656 3.7-3.698 3.7zm-12.33-22.19c-3.405 0-6.164 2.758-6.164 6.163 0 3.404 2.76 6.165 6.164 6.165 3.405 0 6.165-2.76 6.165-6.165 0-3.405-2.76-6.164-6.165-6.164zm12.33-4.933c0-.68-.552-1.232-1.234-1.232h-3.698c-.68 0-1.233.552-1.233 1.233v3.7c0 .68.552 1.233 1.233 1.233h3.698c.682 0 1.234-.553 1.234-1.233v-3.7zm0 8.63h-2.79c.203.79.323 1.614.323 2.467 0 5.448-4.416 9.863-9.863 9.863-5.447 0-9.862-4.415-9.862-9.863 0-.853.12-1.678.324-2.467H3.697v13.563c0 .68.552 1.232 1.234 1.232h22.19c.683 0 1.235-.552 1.235-1.232V13.56z"/>
  </symbol>

  <symbol id="email" viewBox="0 0 32 32" preserveAspectRatio="xMinYMin meet">
    <title>Email</title>
    <path d="M0 4v4l16 8 16-8V4H0zm0 8v16h32V12l-16 8-16-8z"/>
  </symbol>
</svg>
